assets/images/icon/MAYBACH.svg

<svg width="81" height="9" viewBox="0 0 81 9" fill="none" xmlns="http://www.w3.org/2000/svg">
    <path d="M41.31 1.38434H37.908V3.72084H41.31C42.1154 3.72084 42.768 3.19774 42.768 2.5524C42.768 1.90744 42.1154 1.38434 41.31 1.38434ZM18.468 1.81027L16.3068 5.79716H20.6299L18.4684 1.81066L18.468 1.81027ZM52.488 1.81027L50.3265 5.79716H54.6495L52.488 1.81027ZM42.12 4.932H37.908V7.61487H42.12C43.0149 7.61487 43.74 7.01459 43.74 6.27324C43.74 5.53267 43.0149 4.932 42.12 4.932ZM1.78663 0.172798L5.508 3.9677L9.22937 0.172798H11.016V8.82681H9.11289V2.3314L5.508 6.00836L1.9035 2.3314V8.8272H0V0.172798H1.78663ZM25.596 0.172798L28.836 3.94301L32.0772 0.172798H34.1484L29.8292 5.19922V8.82681H27.8443V5.19922L23.5247 0.172798H25.596ZM72.9 0.172798V3.72084H79.056V0.172798H81V8.82681H79.056V4.93239H72.9V8.82681H70.956V0.172798H72.9ZM19.5723 0.172798L24.359 8.82681H22.2723L21.2868 7.00949H15.65L14.6645 8.82681H12.5778L17.3645 0.172798H19.5723ZM41.634 0.172798C43.3338 0.172798 44.712 1.29657 44.712 2.68249C44.712 3.1421 44.5608 3.57234 44.2962 3.94301C45.1355 4.42771 45.684 5.23292 45.684 6.14432C45.684 7.59489 44.2935 8.77666 42.5555 8.82524L42.444 8.82681H35.9644V0.172798H41.634ZM53.5923 0.172798L58.3786 8.82681H56.2919L55.3068 7.00949H49.6696L48.6845 8.82681H46.5978L51.3841 0.172798H53.5923ZM64.962 0C66.3911 0 67.7249 0.253516 68.8496 0.691976V2.17075C67.8533 1.57791 66.4794 1.21076 64.9616 1.21076C62.6801 1.21076 60.8306 2.68405 60.8306 4.4998C60.8306 6.31595 62.6801 7.78806 64.9616 7.78806C66.4794 7.78806 67.8533 7.4217 68.8496 6.82925V8.30763C67.7249 8.74648 66.3911 9 64.9616 9C61.5615 9 58.8056 6.98559 58.8056 4.4998C58.806 2.01441 61.5623 0 64.962 0Z" fill="black"/>
</svg>

<svg width="81" height="9" fill="currentColor" xmlns="http://www.w3.org/2000/svg"><path d="M41.31 1.384h-3.402v2.337h3.402c.805 0 1.458-.523 1.458-1.169 0-.645-.653-1.168-1.458-1.168zm-22.842.426-2.161 3.987h4.323l-2.162-3.986zm34.02 0-2.161 3.987h4.323L52.488 1.81zM42.12 4.932h-4.212v2.683h4.212c.895 0 1.62-.6 1.62-1.342 0-.74-.725-1.341-1.62-1.341zM1.787.172l3.721 3.796L9.229.173h1.787v8.654H9.113V2.33L5.508 6.008 1.904 2.331v6.496H0V.173h1.787zm23.809 0 3.24 3.771 3.241-3.77h2.071L29.83 5.199v3.628h-1.985V5.199L23.524.173h2.072zm47.304 0v3.549h6.156V.173H81v8.654h-1.944V4.932H72.9v3.895h-1.944V.173H72.9zm-53.328 0 4.787 8.655h-2.087l-.985-1.818H15.65l-.986 1.818h-2.086L17.365.173h2.207zm22.062 0c1.7 0 3.078 1.125 3.078 2.51 0 .46-.151.89-.416 1.261.84.485 1.388 1.29 1.388 2.201 0 1.45-1.39 2.633-3.128 2.681l-.112.002h-6.48V.173h5.67zm11.958 0 4.787 8.655h-2.087l-.985-1.818H49.67l-.986 1.818h-2.086L51.384.173h2.208zM64.962 0c1.43 0 2.763.254 3.888.692v1.479c-.997-.593-2.37-.96-3.888-.96-2.282 0-4.131 1.473-4.131 3.289s1.85 3.288 4.13 3.288c1.518 0 2.892-.366 3.889-.959v1.479C67.725 8.746 66.39 9 64.962 9c-3.4 0-6.156-2.014-6.156-4.5S61.562 0 64.962 0z"/></svg>
